packages/assets/application-icons/28.Headphones.svg

<?xml version="1.0" encoding="UTF-8"?>
<svg width="24px" height="24px" viewBox="0 0 24 24" version="1.1" xmlns="http://www.w3.org/2000/svg" xmlns:xlink="http://www.w3.org/1999/xlink">
    <title>28.Headphones</title>
    <g id="Page-1" stroke="none" stroke-width="1" fill="none" fill-rule="evenodd">
        <g id="Artboard" transform="translate(-168.000000, -237.000000)" fill="#000000" fill-rule="nonzero">
            <g id="28.Headphones" transform="translate(168.000000, 237.000000)">
                <path d="M18.8894645,9.79003552 C18.8894644,6.04000243 15.8048149,3 11.9997069,3 C8.19459895,3 5.10994945,6.04000243 5.10994939,9.79003552 C3.90977924,9.90220533 2.99463884,10.8981365 3,12.0862304 L3,14.9047358 C3.00266061,15.5258995 3.25626288,16.1204406 3.70475251,16.5568907 C4.15324214,16.9933408 4.75967005,17.2357428 5.38993954,17.2304954 L7.78985508,17.2304954 L7.78985508,9.79003552 L6.49990047,9.79003552 C6.49990047,6.79654028 8.9622477,4.36983292 11.9997069,4.36983292 C15.0371662,4.36983292 17.4995134,6.79654028 17.4995134,9.79003552 L16.2095588,9.79003552 L16.2095588,17.2699151 L17.3895172,17.2699151 C17.1346501,18.0433009 16.4046704,18.5679565 15.5795809,18.5707637 L13.9096397,18.5707637 C13.8257707,18.3614671 13.6960161,18.1730174 13.5296531,18.0188886 C12.8374542,17.3404327 11.718554,17.3424449 11.0288721,18.0233858 C10.3391902,18.7043266 10.3391902,19.8070338 11.0288721,20.4879747 C11.718554,21.1689156 12.8374542,21.1709277 13.5296531,20.4924719 C13.6863199,20.3304162 13.8147143,20.143942 13.9096397,19.9405967 L15.5795809,19.9405967 C17.1733836,19.9413263 18.5384927,18.8160485 18.8194669,17.2699151 C20.0443876,17.1775911 20.9925562,16.174563 20.9993902,14.9638653 L20.9993902,12.1552148 C21.027062,10.9460853 20.1097921,9.91784634 18.8894645,9.79003552 Z" id="Headphones"></path>
            </g>
        </g>
    </g>
</svg>

<svg width="24" height="24" viewBox="0 0 24 24" xmlns="http://www.w3.org/2000/svg"><path d="M18.89 9.79C18.89 6.04 15.804 3 12 3 8.195 3 5.11 6.04 5.11 9.79c-1.2.112-2.115 1.108-2.11 2.296v2.819a2.32 2.32 0 0 0 .705 1.652 2.388 2.388 0 0 0 1.685.673h2.4V9.79H6.5c0-2.993 2.462-5.42 5.5-5.42 3.037 0 5.5 2.427 5.5 5.42h-1.29v7.48h1.18a1.907 1.907 0 0 1-1.81 1.3h-1.67a1.527 1.527 0 0 0-.38-.551 1.788 1.788 0 0 0-2.501.004c-.69.681-.69 1.784 0 2.465.69.68 1.808.683 2.5.004.157-.162.286-.348.38-.551h1.67c1.594 0 2.96-1.125 3.24-2.671 1.225-.092 2.174-1.095 2.18-2.306v-2.809c.028-1.209-.89-2.237-2.11-2.365Z" fill="#000" fill-rule="nonzero"/></svg>
